app/dist/common/images/mvb-financial.svg

<svg height="18" viewBox="0 0 18 18" width="18" xmlns="http://www.w3.org/2000/svg"><path d="m5.38 4h7.24c.76 0 1.38.62 1.38 1.38v7.24c0 .76-.62 1.38-1.38 1.38h-7.24c-.76 0-1.38-.62-1.38-1.38v-7.24c0-.76.62-1.38 1.38-1.38zm-.88 6.5 2.4-2.67 1.71 1.61 2.55-3.11 2.34 2.37v-3.2a1 1 0 0 0 -1-1h-7a1 1 0 0 0 -1 1z" fill="#002e6d"/><path d="m4.71 10.13v-.13h1.07l.58 1.85.58-1.85h1.02v.13c-.25.02-.39.07-.39.37v1.95c0 .28.1.37.36.37v.18h-1.25v-.18c.26 0 .35-.09.35-.37v-2.12l-.81 2.62h-.13l-.81-2.53h-.01v1.64c0 .64.03.72.35.76v.18h-.9v-.18c.3-.07.28-.11.28-.76v-1.56c0-.3-.05-.37-.29-.37zm4.29.35.55 1.73.47-1.51c.03-.1.06-.18.06-.28 0-.2-.14-.28-.3-.29v-.13h.88v.13c-.22.06-.32.1-.48.64l-.68 2.23h-.3l-.73-2.28c-.08-.25-.14-.55-.42-.59v-.13h1.2v.13c-.26.02-.29.08-.29.17 0 .06.02.12.04.18zm1.79 2.47v-.13c.25 0 .21-.09.21-.37v-1.95c0-.28.01-.37-.25-.37v-.13h1.3c.92 0 1.06.32 1.06.68 0 .41-.32.6-.63.68.4.1.8.26.8.8 0 .48-.3.84-1 .84h-1.5v-.05z" fill="#e8ebf2"/><g fill="#002e6d"><path d="m11.68 10.43h.53a.36.36 0 1 1 0 .71h-.53zm0 1.25h.62a.45.45 0 1 1 0 .9h-.62z"/><path d="m4.3 5h9.52v.5h-9.52zm0 1.5h9.5v.5h-9.5zm0 1.5h9.5v.5h-9.5z" opacity=".7"/></g></svg>

<!-- by TradingView --><svg width="18" height="18" viewBox="0 0 18 18" xmlns="http://www.w3.org/2000/svg"><path d="M5.38 4h7.24c.76 0 1.38.62 1.38 1.38v7.24c0 .76-.62 1.38-1.38 1.38H5.38C4.62 14 4 13.38 4 12.62V5.38C4 4.62 4.62 4 5.38 4Zm-.88 6.5 2.4-2.67 1.71 1.61 2.55-3.11L13.5 8.7V5.5a1 1 0 0 0-1-1h-7a1 1 0 0 0-1 1v5Z" fill="#002E6D"/><path d="M4.71 10.13V10h1.07l.58 1.85.58-1.85h1.02v.13c-.25.02-.39.07-.39.37v1.95c0 .28.1.37.36.37V13H6.68v-.18c.26 0 .35-.09.35-.37v-2.12l-.81 2.62h-.13l-.81-2.53h-.01v1.64c0 .64.03.72.35.76V13h-.9v-.18c.3-.07.28-.11.28-.76V10.5c0-.3-.05-.37-.29-.37Zm4.29.35.55 1.73.47-1.51c.03-.1.06-.18.06-.28 0-.2-.14-.28-.3-.29V10h.88v.13c-.22.06-.32.1-.48.64L9.5 13h-.3l-.73-2.28c-.08-.25-.14-.55-.42-.59V10h1.2v.13c-.26.02-.29.08-.29.17 0 .06.02.12.04.18Zm1.79 2.47v-.13c.25 0 .21-.09.21-.37V10.5c0-.28.01-.37-.25-.37V10h1.3c.92 0 1.06.32 1.06.68 0 .41-.32.6-.63.68.4.1.8.26.8.8 0 .48-.3.84-1 .84h-1.5v-.05Z" fill="#E8EBF2"/><path d="M11.68 10.43h.53a.36.36 0 1 1 0 .71h-.53v-.71ZM11.68 11.68h.62a.45.45 0 1 1 0 .9h-.62v-.9Z" fill="#002E6D"/><path opacity=".7" fill="#002E6D" d="M4.3 5h9.52v.5H4.3zM4.3 6.5h9.5V7H4.3zM4.3 8h9.5v.5H4.3z"/></svg>
